X: 12122
T: Evening Prayer Blues
R: reel
M: 4/4
K: Amixolydian
A2 A2 Ac d2|(3eee e2 e2 e2|ed=c^c Acde|cc A2 AcdB|
a/a/a/a/ a/a/a/a/ a/a/a/a/ ac'|a^g ed cAGA|cAdc A2 AA|Aceg aAaA|
dcAA (3eee a2|a2 a2 ed=c^c|Acde dc A2|AcdB a/a/a/a/ a/a/a/a/|
a/a/a/a/ ac' a^ged|cAGA edcA|A2 AA e=ceg|aAaA a2 a2|
ed=c^c AGEF|GAcA dcAA|ed=c^c age^d|=c^c=c'^c' a2 a2|
ed=c^c age^d|cecA dcAA|EAed cAGA|=c^cdc A2 A2|A=ceg aA a2|
edcA 9£eee e2|e2 e2 ed=c^c|Acde dc A2|A2 AA a/a/a/a/ a/a/a/a/|
a/a/a/a/ a/a/a/a/ a^ged|cAGA ed=c^c|A2 AA A=ceg|aA A2 edcA|
(3aaa a2 a2 a2|e2 AA d2 AA|dc A2 Acde|a/a/a/a/ a/a/a/a/ a/a/a/a/ ac'|
a^ged cAGA|cAdc A2 AA|A=ce^g a2 A2|e4 ed=c^c|age^d cA=c^c|
d=cAA ed=c^c|age^d cA=c^c|A2 A2 ed=c^c|age^d cA=c^c|
dcAA ed=c^c|age^d cA=c^c|A2 AA A=cea|A2 EE dc e2|e2 e2 e2 e2|e2 d2 c2 A2|
A2 A2 Acdc|a/a/a/a/ a/a/a/a/ a/a/a/a/ a=c'|aged cAGA|cAdc A2 AA|
cega AaAA|dcAA (3eee a2|a2 a2 a2>e|c2>E d2>E|cAdE a/a/a/a/ a/a/a/a/|
a/a/a/a/ c'b a/a/a/a/ a^g|zdcA cAdc|A2 AA A=ceg|a2 e4 a2|
ed=c^c age^d|cAcA dc A2|ed=c^c age^d|cA=c^c A2 A2|
edce dA=c^c|edcA dcAA|ed=c^c age^d|cA=c^c A2 A2|A=ceg a4|e8||

